svgs/sharp-solid/memory.svg

<svg xmlns="http://www.w3.org/2000/svg" viewBox="0 0 576 512"><!--! Font Awesome Pro 6.6.0 by @fontawesome - https://fontawesome.com License - https://fontawesome.com/license (Commercial License) Copyright 2024 Fonticons, Inc. --><path d="M576 64L0 64l0 82.7c18.6 6.6 32 24.4 32 45.3s-13.4 38.7-32 45.3L0 320l576 0 0-82.7c-18.6-6.6-32-24.4-32-45.3s13.4-38.7 32-45.3L576 64zm0 288L0 352l0 96 80 0 0-32 0-16 32 0 0 16 0 32 96 0 0-32 0-16 32 0 0 16 0 32 96 0 0-32 0-16 32 0 0 16 0 32 96 0 0-32 0-16 32 0 0 16 0 32 80 0 0-96zM192 128l0 32 0 64 0 32-64 0 0-32 0-64 0-32 64 0zm128 32l0 64 0 32-64 0 0-32 0-64 0-32 64 0 0 32zm128-32l0 32 0 64 0 32-64 0 0-32 0-64 0-32 64 0z"/></svg>

<svg xmlns="http://www.w3.org/2000/svg" viewBox="0 0 576 512"><!--! Font Awesome Pro 6.4.0 by @fontawesome - https://fontawesome.com License - https://fontawesome.com/license (Commercial License) Copyright 2023 Fonticons, Inc. --><path d="M576 64H0v82.7c18.6 6.6 32 24.4 32 45.3s-13.4 38.7-32 45.3V320H576V237.3c-18.6-6.6-32-24.4-32-45.3s13.4-38.7 32-45.3V64zm0 288H0v96H80V416 400h32v16 32h96V416 400h32v16 32h96V416 400h32v16 32h96V416 400h32v16 32h80V352zM192 128v32 64 32H128V224 160 128h64zm128 32v64 32H256V224 160 128h64v32zm128-32v32 64 32H384V224 160 128h64z"/></svg>
